!!!!SEGMENT: pl-wtm--r-66-n--009_noskowski-zygmunt--piesni-ludowe-op-51-hejze-ha-mazur.krn
!!!cenid: 18xx:2287
!!!COM: Noskowski, Zygmunt
!!!COM-rismid: pe106604
!!!CDT: 1846/05/02-1909/07/23
!!!CNT: Polish
!!!GTL: Pieśni ludowe op. 51
!!!OTL: Hejże ha Mazur
!!!PDT:
!!!AGN: Secular; Song
!!!SMS-siglum: PL-Wtm
!!!SMS-shelfmark: R 66/N
!!!SMS-shelfwork: 009 G
!!!SMS-variant:
!!!SMS-altvar:
!!!NIFC-rismid: 1001096733
!!!OMD: Allegro non troppo
!!!system-decoration: {(s1,s2)}
**kern	**dynam	**kern	**text	**text	**dynam
*part2	*part2	*part1	*part1	*part1	*part1
*staff2	*	*staff1	*staff1	*staff1	*
*Ibass	*	*Itenor	*	*	*
*I"Basy	*	*I"Tenory	*	*	*
*I'B.	*	*I'T.	*	*	*
*clefF4	*	*clefG2v2	*	*	*
*k[b-e-]	*	*k[b-e-]	*	*	*
*B-:	*	*B-:	*	*	*
*M3/4	*	*M3/4	*	*	*
*>[A,A]	*	*>[A,A]	*	*	*
=1	=1	=1	=1	=1	=1
*^	*	*	*	*	*
*	*	*	*^	*	*	*
*>A	*>A	*	*>A	*>A	*	*	*
!!LO:TX:a:t=P:problem:all\left, middle or right:global
!	!	!	!LO:TX:t=P:problem:w źródle brak przenośnika oktawowego przy kluczu	!	!	!	!
!	!	!LO:DY:b:rj	!	!	!	!	!LO:DY:b:rj
4.B-^^>/	4.BB-^^>\	f	4.f^^>/	4.d\	1. Hej!	2. To	f
8F/	8D\	.	8d/	8B-\	Ma-	mi	.
8F/	8F\	.	8e-/	8A\	-zu-	zie-	.
8F/	8E-\	.	8c/	8A\	-ry	-mia,	.
=2	=2	=2	=2	=2	=2	=2	=2
8F/	8D\	.	8B-/	8B-\	hej-	to	.
8F/	8F\	.	8d/	8B-\	-że	mi	.
2F/	(>4D\	.	(>4B-/	2B-\	ha!	kraj	.
.	4BB-\)	.	4d/)	.	.	.	.
=3	=3	=3	=3	=3	=3	=3	=3
4.G/	4.GG\	.	4.f/	4.Bn\	Pó-	W to	.
8F/	8D\	.	8d/	8B\	-ki	mi	.
8G/	8C\	.	8e-/	8c\	ży-	Mać-	.
8F/	8E-\	.	8c/	8A\	-cia	-ku	.
=4	=4	=4	=4	=4	=4	=4	=4
8F/	8D\	.	8B-/	8B-X\	chwi-	w to	.
8F/	8F\	.	8d/	8B-\	-la	mi	.
(>4F/	(<4D\	.	(>4B-/	(<4B-\	trwa,	graj!	.
4E-/)	4E-\)	.	4G/)	4G\)	.	.	.
!!LO:LB:g=original
=5	=5	=5	=5	=5	=5	=5	=5
8F/	8F\	.	8F/	8F\	Pó-	Są	.
8A/	8F\	.	8e-/	8c\	-ki	tam	.
4G#X/	4F\	.	4d/	4Bn\	ser-	chłop-	.
4A/	4F\	.	4e-/	4c\	-ce	-cy,	.
=6	=6	=6	=6	=6	=6	=6	=6
8B-/	8BB-\	.	8d/	8B-X\	ży-	sól	.
8F/	8BB-\	.	8f/	8d\	-wo	i	.
4Gn/	4BB-\	<	4en/	4c#X\	bi-	ka-	<
4F^^>/	4BB-\	.	4f^^>/	4d\	-je,	-sza,	.
=7	=7	=7	=7	=7	=7	=7	=7
8F/	8F\	.	8F/	8F\	Pó-	Do-	.
8F/	8C\	.	8e-X/	8A\	-ty	-bra	.
4F/	4BBn\	.	4d/	4G#X\	szczę-	na-	.
4F/	4C\	.	4e-/	4A\	-ścia	-sza,	.
=8	=8	=8	=8	=8	=8	=8	=8
8F/	8BB-X\	.	8d/	8B-\	człek	do-	.
8F/	8D\	.	8f/	8B-\	u-	-bra	.
4G/	4C#X\	.	4en/	4B-\	-ży-	na-	.
4F/	4D\	.	4f/	4B-\	-je	-sza,	.
!!LO:LB:g=original
=9	=9	=9	=9	=9	=9	=9	=9
!	!	!LO:DY:b:rj	!	!	!	!	!LO:DY:b:rj
8F/	8F\	f	8F/	8F\	Hej-	A	f
8G/	8Cn\	.	8e-/	8B-\	-że	więc	.
4.F/	4.F\	.	4.d/	4.A\	w hop-	chwac-	.
8F/	8E-\	.	8c/	8A\	-ki	-ko,	.
=10	=10	=10	=10	=10	=10	=10	=10
8F/	8D\	.	8A/	8A\	hej,	Żwa-	.
8F/	8D\	.	8B-/	8B-\	pa-	-wo,	.
4.E-/	4.E-\	.	4.g/	4.B-\	-rob-	grac-	.
8F/	8D 8C\	.	8f/	8B-\	-ki,	-ko,	.
=11	=11	=11	=11	=11	=11	=11	=11
8G/	8C\	.	8en/	8B-\	Gdy	Stal	.
8F/	8C\	.	8f/	8A\	mu-	o	.
4G/	4FF\	.	4e-X/	4A\	-zy-	stal-	.
4E-/	4FF\	.	(<8c/L	4A\	-ka	-kę	.
.	.	.	8A/J)	.	.	.	.
=12	=12	=12	=12	=12	=12	=12	=12
2.D/	2.BB-\	.	2.B-/	2.F\	gra.	dzwoń.	.
=13	=13	=13	=13	=13	=13	=13	=13
!	!	!LO:DY:b:rj	!	!	!	!	!LO:DY:b:rj
8GG/	8GG\	f	8G/	8G\	Już	Mi-	f
8GG/	8GG\	.	8G/	8G\	nam	-ło	.
4GG/	4GG\	.	4G/	4G\	szum-	mi	.
4AA/	4AA\	.	4A/	4A\	-ny	w tym	.
!!LO:LB:g=original
=14	=14	=14	=14	=14	=14	=14	=14
8BB-/	8BB-\	.	8B-/	8B-\	za-	kra-	.
8AA/	8AA\	.	8A/	8A\	-grzmiał	-ju	.
(>4GG/	(<4GG\	.	2G/	2G\	bas,	żyć,	.
4E-/)	4E-\)	.	.	.	.	.	.
=15	=15	=15	=15	=15	=15	=15	=15
8D/	8D\	.	8d/	8F#X\	Nu-	Mi-	.
8D/	8D\	.	8d/	8F#\	-że	-ło	.
4D/	(<8D\L	.	4F#X/	4F#\	bra-	o	.
.	8C\J)	.	.	.	.	.	.
4D/	(<8BB-\L	.	4A/	4F#\	-cia,	pod-	.
.	8AA\J)	.	.	.	.	.	.
=16	=16	=16	=16	=16	=16	=16	=16
8D/	8GG\	.	8c/	8A\	da-	-ków-	.
8D/	8GG\	.	8B-/	8G\	-lej	-kę	.
2BB-/	2GG\	.	2G/	2G\	wraz!	bić,	.
=17	=17	=17	=17	=17	=17	=17	=17
!	!	!LO:DY:a:rj	!	!	!	!	!LO:DY:a:rj
8BB-/	8BB-\	mf	8G/	8G\	Al-	Kro-	mf
8D/	8D\	.	8D/	8D\	-boż	-by	.
4BB-/	4BB-\	.	4G/	4G\	my	prze-	.
4D/	4D\	.	4A/	4A\	nie	-rwał	.
!!LO:LB:g=original
=18	=18	=18	=18	=18	=18	=18	=18
!	!	!LO:HP:a	!	!	!	!	!
8G/	8G\	<	8B-/	8B-\	w chło-	nam	<
8D/	8D\	.	8A/	8A\	-pa	ten	.
2BB-/	2BB-\	[	2G/	2G\	chłop,	pląs,	[
=19	=19	=19	=19	=19	=19	=19	=19
!	!	!LO:DY:a:rj	!	!	!	!	!LO:DY:a:rj
8D/	8GG\	f	8B-/	8G\	Bra-	Gól	f
8D/	8BB-\	.	8B-/	8G\	-cie	mu	.
4G/	(<8E-\L	.	4G/	4G\	mój	bro-	.
.	8D\J)	.	.	.	.	.	.
4G/	(<8C\L	.	4B-/	4G\	w pod-	-dę,	.
.	8BB-\J)	.	.	.	.	.	.
=20	=20	=20	=20	=20	=20	=20	=20
8G/	8F\	.	8B-/	8G\	-ków-	wa-	.
8G/	8E-\	.	8c/	8A\	-ki	-ra	.
2F#X;>/	2D;<\	.	2d;>/	2A;<\	hop!	wąs!	.
=21	=21	=21	=21	=21	=21	=21	=21
!	!	!LO:DY:a:rj	!	!	!	!	!LO:DY:b:rj
8Fn/	8F\	p	8Fn/	8F\	1.2. Hej-	.	p
8C/	8FF\	.	8e-/	8A\	-że,	.	.
4BBn/	4FF\	.	4d/	4G#X\	hej-	.	.
4C/	4FF\	.	4e-/	4A\	-że,	.	.
!!LO:PB:g=original
=22	=22	=22	=22	=22	=22	=22	=22
8BB-X/	8BB-\	.	8d/	8B-\	da-	.	.
8D/	8BB-\	.	8f/	8B-\	-lej,	.	.
4G/	4BB-\	.	4en/	(<8B-\L	da-	.	.
.	.	.	.	8c\J)	.	.	.
4F/	4BB-\	.	4f/	4d\	-lej,	.	.
=23	=23	=23	=23	=23	=23	=23	=23
8F/	8F\	.	8F/	8F\	Patrz-	.	.
8F/	8C\	<	8e-X/	8A\	-cie	.	<
4F/	4BBn\	.	4d/	4G#X\	jak	.	.
4F/	4C\	.	4e-/	4A\	się	.	.
=24	=24	=24	=24	=24	=24	=24	=24
8F/	8BB-X\	.	8d/	8B-\	Ma-	.	.
8F/	8D\	.	8f/	8B-\	-zur	.	.
4G/	4C#X\	.	4en/	4B-\	wa-	.	.
4F/	4D\	.	4f/	4B-\	-li,	.	.
=25	=25	=25	=25	=25	=25	=25	=25
!	!	!LO:DY:b:rj	!	!	!	!	!LO:DY:a:rj
8F/	8F\	f	8F/	8F\	Bo	.	f
8G/	8Cn\	.	8e-X/	8B-\	Ma-	.	.
4.F/	4.F\	.	4.d/	4.A\	-zu-	.	.
8F/	8E-\	.	8c/	8A\	-ry	.	.
!!LO:LB:g=origina
=26	=26	=26	=26	=26	=26	=26	=26
8F/	8D\	.	8A/	8A\	krzy-	.	.
8F/	8D\	.	8B-/	8B-\	-czą	.	.
4.E-/	4.E-\	.	4.g/	4.B-\	z gó-	.	.
8F/	8D\	.	8f/	8B-\	-ry:	.	.
=27	=27	=27	=27	=27	=27	=27	=27
8G/	8C\	.	8en/	8B-\	Ta-	.	.
8F/	8C\	.	8f/	8A\	-niec	.	.
4G/	4FF\	.	4e-X/	4A\	nasz	.	.
4E-/	4FF#X\	.	(>8c/L	4A\	to	.	.
.	.	.	8A/J)	.	.	.	.
=28	=28	=28	=28	=28	=28	=28	=28
2.D/	2.GG\	.	2.B-/	2.G\	raj!	.	.
=29	=29	=29	=29	=29	=29	=29	=29
!	!	!LO:DY:b:rj	!	!	!	!	!LO:DY:a:rj
8C/	8AA\	ff	8F/	8F\	Bo	.	ff
8F/	8AA\	.	8e-/	8c\	Ma-	.	.
4.F/	4.BB-\	.	4.d/	4.B-\	-zu-	.	.
8E-/	8C\	.	8c/	8A\	-ry	.	.
!!LO:LB:g=original
=30	=30	=30	=30	=30	=30	=30	=30
8F/	8D\	.	8A/	8A\	krzy-	.	.
8F/	8D\	.	8B-/	8B-\	-czą	.	.
4.B-/	4.En\	.	4.g/	4.c\	z gó-	.	.
8A/	8F\	.	8f/	8c\	-ry:	.	.
=31	=31	=31	=31	=31	=31	=31	=31
8B-/	8G\	.	8en/	8c\	Ta-	.	.
!LO:TX:b:Bi:t=riten	!	!	!LO:TX:a:Bi:t=riten	!	!	!	!
8A/	8F\	.	8f/	8c\	-niec	.	.
4G/	4C\	.	4e-X/	4B-\	nasz	.	.
(>8F/L	(<8F\L	.	(>8c/L	(<8A\L	to	.	.
8E-/J)	8FF\J)	.	8A/J)	8F\J)	.	.	.
=32	=32	=32	=32	=32	=32	=32	=32
[>2.D;>/	[<2.BB-;<\	.	[>2.B-;>/	[<2.F\	raj!	.	.
=33	=33	=33	=33	=33	=33	=33	=33
8D/]	8BB-\]	.	8B-/]	8F\]	.	.	.
8r	8ryy	.	8rB	8ryy	.	.	.
4r	2ryy	.	4rB	2ryy	.	.	.
4r	.	.	4rB	.	.	.	.
*v	*v	*	*	*	*	*	*
*	*	*v	*v	*	*	*
==:|!	==:|!	==:|!	==:|!	==:|!	==:|!
*-	*-	*-	*-	*-	*-
!!title: @{OTL};
!!!RDF**kern: > = above
!!!RDF**kern: < = below
!!!RDF**dynam: > = "dim", fontstyle= "bold-italic"
!!!RDF**dynam: < = "cresc", fontstyle= "bold-italic"
!!!RDF**kern: | = vertical stroke
!!!RDF**kern: N = linked
!!!RDF**kern: i = editorial accidental
!!!EED: Wojciech Jakubiak-Danek
!!!EST: 2021-06-09
!!!URL-scan: http://repozytorium.nifc.pl/skany/pl-wtm-nut--r66n
!!!ONB-nifc: UWAGA: na podstawie partytur z folderu pl-wtm-r66n
!!!ENC: Berenika Jozajtis
!!!END: 2021-06-01
